public/certa-logo.svg

<svg xmlns="http://www.w3.org/2000/svg" viewBox="0 0 735 256.1"><path d="M166.507 50.493h-18.553c-11.037-20.198-31.937-34.054-60.356-34.054-40.628 0-68.81 30.061-68.81 69.045 0 38.985 28.182 69.044 68.81 69.044 28.419 0 49.319-13.855 60.356-34.052h18.553c-11.977 29.59-41.097 50.493-78.909 50.493C36.872 170.969 0 133.862 0 85.484S36.872 0 87.598 0c37.812 0 66.932 20.902 78.909 50.493M382.953 99.34c27.242 0 42.037-19.492 42.037-40.159 0-20.666-14.795-39.688-42.037-39.688h-41.804V99.34h41.804Zm-6.106 16.205h-35.698v52.135h-18.786V3.288h62.467c35.228 0 58.714 25.833 58.714 55.893 0 26.069-17.614 49.084-44.856 54.955l50.021 53.544H424.99l-48.143-52.135ZM576.311 19.493h-44.458v148.188h-18.788V19.493h-53.782V3.288h125.348l-8.32 16.205ZM621.569 116.484h73.272l-36.637-91.59-36.635 91.59Zm79.613 15.735h-85.955l-14.325 35.461h-19.493L650.455 3.287h15.5L735 167.68h-19.491l-14.327-35.461Z" style="fill:#17002d;fill-opacity:1"/><path d="M124.455 234.642c0-4.198-3.438-7.077-7.756-7.077h-12.034v27.986h12.674c5.637 0 9.395-3.398 9.395-7.756 0-3.798-2.399-6.277-6.317-6.997 2.359-1.079 4.038-3.358 4.038-6.156Zm-14.632 16.751v-8.156h6.796c2.919 0 4.918 1.639 4.918 4.038s-1.879 4.118-4.958 4.118h-6.756Zm0-19.67h5.277c2.559 0 4.278 1.479 4.278 3.598 0 2.159-1.559 3.838-4.038 3.838h-5.517v-7.436Zm43.697 9.835c0 8.156 5.997 14.552 14.872 14.552 8.916 0 14.872-6.436 14.872-14.552s-5.956-14.552-14.872-14.552c-8.875 0-14.872 6.436-14.872 14.552Zm14.872-10.075c6.077 0 9.675 4.678 9.675 10.075 0 5.357-3.598 10.075-9.675 10.075-6.037 0-9.675-4.718-9.675-10.075 0-5.397 3.638-10.075 9.675-10.075Zm41.978 10.075c0 8.156 5.997 14.552 14.873 14.552 8.915 0 14.872-6.436 14.872-14.552s-5.957-14.552-14.872-14.552c-8.876 0-14.873 6.436-14.873 14.552Zm14.873-10.075c6.076 0 9.675 4.678 9.675 10.075 0 5.357-3.599 10.075-9.675 10.075-6.037 0-9.675-4.718-9.675-10.075 0-5.397 3.638-10.075 9.675-10.075Zm43.377 24.068h5.197v-13.953l11.554 13.953h6.197l-12.034-14.313 11.474-13.673h-5.997l-11.194 13.313v-13.313h-5.197v27.986Zm50.734 0h5.197v-13.953l11.554 13.953h6.197l-12.034-14.313 11.474-13.673h-5.997l-11.194 13.313v-13.313h-5.197v27.986Zm50.733 0h18.87v-4.558h-13.673v-7.396h13.154v-4.518h-13.154v-6.956h13.513v-4.558h-18.71v27.986Zm47.415 0h18.871v-4.558H422.7v-7.396h13.153v-4.518H422.7v-6.956h13.513v-4.558h-18.711v27.986Zm59.249-7.876c5.957 0 10.155-4.558 10.155-10.075 0-5.517-4.198-10.035-10.155-10.035h-11.833v27.986h5.197v-7.876h6.636Zm-6.636-4.478v-11.154h5.957c3.438 0 5.637 2.479 5.637 5.557 0 3.079-2.199 5.597-5.637 5.597h-5.957Zm44.657 12.354h5.197v-27.986h-5.197v27.986Zm35.301 0h5.078v-19.83l16.111 19.83h4.358v-27.986h-5.077v19.87l-16.112-19.87h-4.358v27.986Zm82.757-19.07c-2.039-5.877-6.996-9.475-13.673-9.475-9.035 0-15.032 6.356-15.032 14.552 0 8.076 5.997 14.552 15.032 14.552 8.876 0 14.593-6.356 14.593-14.592v-.08h-16.192v4.278h10.595c-1.08 3.478-4.078 6.037-9.036 6.037-5.837 0-9.795-3.998-9.795-10.195 0-5.837 3.878-10.075 9.835-10.075 4.238 0 7.037 2.159 8.516 4.998h5.157Z" style="fill:#000547;text-wrap-mode:nowrap"/><path d="M295.678 11.826H186.047M295.678 83.911H186.047M295.678 159.001H186.047" style="stroke-opacity:1;stroke-miterlimit:0;stroke-width:17.344px;stroke-dashoffset:0;fill-opacity:1;fill:none;stroke:#57d6c0"/></svg>

<?xml version="1.0" encoding="utf-8"?>
<svg xmlns="http://www.w3.org/2000/svg" viewBox="0 0 735 256.1">
  <path d="M 166.507 50.493 L 147.954 50.493 C 136.917 30.295 116.017 16.439 87.598 16.439 C 46.97 16.439 18.788 46.5 18.788 85.484 C 18.788 124.469 46.97 154.528 87.598 154.528 C 116.017 154.528 136.917 140.673 147.954 120.476 L 166.507 120.476 C 154.53 150.066 125.41 170.969 87.598 170.969 C 36.872 170.969 0 133.862 0 85.484 C 0 37.106 36.872 0 87.598 0 C 125.41 0 154.53 20.902 166.507 50.493" style="fill: rgb(23, 0, 45); fill-opacity: 1;"/>
  <path d="M 382.953 99.34 C 410.195 99.34 424.99 79.848 424.99 59.181 C 424.99 38.515 410.195 19.493 382.953 19.493 L 341.149 19.493 L 341.149 99.34 L 382.953 99.34 Z M 376.847 115.545 L 341.149 115.545 L 341.149 167.68 L 322.363 167.68 L 322.363 3.288 L 384.83 3.288 C 420.058 3.288 443.544 29.121 443.544 59.181 C 443.544 85.25 425.93 108.265 398.688 114.136 L 448.709 167.68 L 424.99 167.68 L 376.847 115.545 Z" style="fill: rgb(23, 0, 45); fill-opacity: 1;"/>
  <path d="M 576.311 19.493 L 531.853 19.493 L 531.853 167.681 L 513.065 167.681 L 513.065 19.493 L 459.283 19.493 L 459.283 3.288 L 584.631 3.288 L 576.311 19.493 Z" style="fill: rgb(23, 0, 45); fill-opacity: 1;"/>
  <path d="M 621.569 116.484 L 694.841 116.484 L 658.204 24.894 L 621.569 116.484 Z M 701.182 132.219 L 615.227 132.219 L 600.902 167.68 L 581.409 167.68 L 650.455 3.287 L 665.955 3.287 L 735 167.68 L 715.509 167.68 L 701.182 132.219 Z" style="fill: rgb(23, 0, 45); fill-opacity: 1;"/>
  <path d="M 124.455 234.642 C 124.455 230.444 121.017 227.565 116.699 227.565 L 104.665 227.565 L 104.665 255.551 L 117.339 255.551 C 122.976 255.551 126.734 252.153 126.734 247.795 C 126.734 243.997 124.335 241.518 120.417 240.798 C 122.776 239.719 124.455 237.44 124.455 234.642 Z M 109.823 251.393 L 109.823 243.237 L 116.619 243.237 C 119.538 243.237 121.537 244.876 121.537 247.275 C 121.537 249.674 119.658 251.393 116.579 251.393 L 109.823 251.393 Z M 109.823 231.723 L 115.1 231.723 C 117.659 231.723 119.378 233.202 119.378 235.321 C 119.378 237.48 117.819 239.159 115.34 239.159 L 109.823 239.159 L 109.823 231.723 Z M 153.52 241.558 C 153.52 249.714 159.517 256.11 168.392 256.11 C 177.308 256.11 183.264 249.674 183.264 241.558 C 183.264 233.442 177.308 227.006 168.392 227.006 C 159.517 227.006 153.52 233.442 153.52 241.558 Z M 168.392 231.483 C 174.469 231.483 178.067 236.161 178.067 241.558 C 178.067 246.915 174.469 251.633 168.392 251.633 C 162.355 251.633 158.717 246.915 158.717 241.558 C 158.717 236.161 162.355 231.483 168.392 231.483 Z M 210.37 241.558 C 210.37 249.714 216.367 256.11 225.243 256.11 C 234.158 256.11 240.115 249.674 240.115 241.558 C 240.115 233.442 234.158 227.006 225.243 227.006 C 216.367 227.006 210.37 233.442 210.37 241.558 Z M 225.243 231.483 C 231.319 231.483 234.918 236.161 234.918 241.558 C 234.918 246.915 231.319 251.633 225.243 251.633 C 219.206 251.633 215.568 246.915 215.568 241.558 C 215.568 236.161 219.206 231.483 225.243 231.483 Z M 268.62 255.551 L 273.817 255.551 L 273.817 241.598 L 285.371 255.551 L 291.568 255.551 L 279.534 241.238 L 291.008 227.565 L 285.011 227.565 L 273.817 240.878 L 273.817 227.565 L 268.62 227.565 L 268.62 255.551 Z M 319.354 255.551 L 324.551 255.551 L 324.551 241.598 L 336.105 255.551 L 342.302 255.551 L 330.268 241.238 L 341.742 227.565 L 335.745 227.565 L 324.551 240.878 L 324.551 227.565 L 319.354 227.565 L 319.354 255.551 Z M 370.087 255.551 L 388.957 255.551 L 388.957 250.993 L 375.284 250.993 L 375.284 243.597 L 388.438 243.597 L 388.438 239.079 L 375.284 239.079 L 375.284 232.123 L 388.797 232.123 L 388.797 227.565 L 370.087 227.565 L 370.087 255.551 Z M 417.502 255.551 L 436.373 255.551 L 436.373 250.993 L 422.7 250.993 L 422.7 243.597 L 435.853 243.597 L 435.853 239.079 L 422.7 239.079 L 422.7 232.123 L 436.213 232.123 L 436.213 227.565 L 417.502 227.565 L 417.502 255.551 Z M 476.751 247.675 C 482.708 247.675 486.906 243.117 486.906 237.6 C 486.906 232.083 482.708 227.565 476.751 227.565 L 464.918 227.565 L 464.918 255.551 L 470.115 255.551 L 470.115 247.675 L 476.751 247.675 Z M 470.115 243.197 L 470.115 232.043 L 476.072 232.043 C 479.51 232.043 481.709 234.522 481.709 237.6 C 481.709 240.679 479.51 243.197 476.072 243.197 L 470.115 243.197 Z M 514.772 255.551 L 519.969 255.551 L 519.969 227.565 L 514.772 227.565 L 514.772 255.551 Z M 550.073 255.551 L 555.151 255.551 L 555.151 235.721 L 571.262 255.551 L 575.62 255.551 L 575.62 227.565 L 570.543 227.565 L 570.543 247.435 L 554.431 227.565 L 550.073 227.565 L 550.073 255.551 Z M 632.83 236.481 C 630.791 230.604 625.834 227.006 619.157 227.006 C 610.122 227.006 604.125 233.362 604.125 241.558 C 604.125 249.634 610.122 256.11 619.157 256.11 C 628.033 256.11 633.75 249.754 633.75 241.518 L 633.75 241.438 L 617.558 241.438 L 617.558 245.716 L 628.153 245.716 C 627.073 249.194 624.075 251.753 619.117 251.753 C 613.28 251.753 609.322 247.755 609.322 241.558 C 609.322 235.721 613.2 231.483 619.157 231.483 C 623.395 231.483 626.194 233.642 627.673 236.481 L 632.83 236.481 Z" style="fill: rgb(0, 5, 71); text-wrap-mode: nowrap;"/>
  <path d="M 295.678 11.826 L 186.047 11.826" style="fill: rgb(35, 31, 32); stroke: rgb(255, 255, 255); stroke-opacity: 1; stroke-miterlimit: 0; stroke-width: 17.344px; stroke-dashoffset: 0px; fill-opacity: 1;"/>
  <path d="M 295.678 83.911 L 186.047 83.911" style="fill: rgb(35, 31, 32); stroke: rgb(255, 255, 255); stroke-opacity: 1; stroke-miterlimit: 0; stroke-width: 17.344px; stroke-dashoffset: 0px; fill-opacity: 1;"/>
  <path d="M 295.678 159.001 L 186.047 159.001" style="fill: rgb(35, 31, 32); stroke: rgb(255, 255, 255); stroke-opacity: 1; stroke-miterlimit: 0; stroke-width: 17.344px; stroke-dashoffset: 0px; fill-opacity: 1;"/>
</svg>
